X:1061
T:Da Ferrie Reel
T:Ferry Reel, The
R:reel
D:The Silver Bow
O:Shetland
Z:id:hn-reel-1061
M:C|
L:1/8
K:D
A2 | d2dA d2d2 | efed c2A2 | BcdB ABAF | G2E2 E3A |
d2dA d2d2 | efed c2A2 | BcdB AGFE | D2d2 d2 :|
|: e2 | f2fd f2fd | fgag fedf | e2ec e2ec | efed cBAg |
f2fd f2fd | fgag fedf | efgf edcB | A2d2 d2 :|

